icons/evolvere-blue-folders-flat-vivid-dark-fallback/apps/64/services.svg

<?xml version="1.0" encoding="UTF-8" standalone="no"?>
<!-- Created with Inkscape (http://www.inkscape.org/) -->

<svg
   xmlns:dc="http://purl.org/dc/elements/1.1/"
   xmlns:cc="http://creativecommons.org/ns#"
   xmlns:rdf="http://www.w3.org/1999/02/22-rdf-syntax-ns#"
   xmlns:svg="http://www.w3.org/2000/svg"
   xmlns="http://www.w3.org/2000/svg"
   xmlns:sodipodi="http://sodipodi.sourceforge.net/DTD/sodipodi-0.dtd"
   xmlns:inkscape="http://www.inkscape.org/namespaces/inkscape"
   width="64"
   height="64"
   id="svg13094"
   version="1.1"
   inkscape:version="0.91+devel r"
   sodipodi:docname="services.svg">
  <sodipodi:namedview
     id="base"
     pagecolor="#ffffff"
     bordercolor="#666666"
     borderopacity="1.0"
     inkscape:pageopacity="0"
     inkscape:pageshadow="2"
     inkscape:zoom="11.313709"
     inkscape:cx="30.841727"
     inkscape:cy="32.452853"
     inkscape:document-units="px"
     inkscape:current-layer="svg13094"
     showgrid="true"
     inkscape:snap-bbox="true"
     inkscape:bbox-paths="true"
     inkscape:bbox-nodes="true"
     inkscape:snap-bbox-edge-midpoints="true"
     inkscape:snap-bbox-midpoints="true"
     inkscape:object-paths="true"
     inkscape:snap-intersection-paths="true"
     inkscape:object-nodes="true"
     inkscape:snap-smooth-nodes="true"
     inkscape:snap-midpoints="true"
     inkscape:snap-object-midpoints="true"
     inkscape:snap-center="true"
     showguides="true"
     inkscape:guide-bbox="true"
     inkscape:window-width="1920"
     inkscape:window-height="1023"
     inkscape:window-x="-10"
     inkscape:window-y="35"
     inkscape:window-maximized="1"
     inkscape:snap-global="true"
     fit-margin-top="0"
     fit-margin-left="0"
     fit-margin-right="0"
     fit-margin-bottom="0"
     showborder="true"
     inkscape:showpageshadow="false"
     inkscape:snap-page="true">
    <inkscape:grid
       type="xygrid"
       id="grid3075"
       empspacing="5"
       visible="true"
       enabled="true"
       snapvisiblegridlinesonly="true"
       originx="0px"
       originy="18px" />
  </sodipodi:namedview>
  <defs
     id="defs13096" />
  <metadata
     id="metadata13099">
    <rdf:RDF>
      <cc:Work
         rdf:about="">
        <dc:format>image/svg+xml</dc:format>
        <dc:type
           rdf:resource="http://purl.org/dc/dcmitype/StillImage" />
        <dc:title></dc:title>
      </cc:Work>
    </rdf:RDF>
  </metadata>
  <path
     style="color:#000000;fill:#34908a;fill-opacity:1;fill-rule:nonzero;stroke:none;stroke-width:2.28571415;marker:none;visibility:visible;display:inline;overflow:visible;enable-background:accumulate"
     d="M 0 4 L 0 34 L 0 62 L 2 64 L 32 64 L 62 64 L 64 62 L 64 34 L 64 4 L 32 4 L 0 4 z "
     id="path3056" />
  <path
     id="path3872"
     d="M 2,0 0,1 0,4 32,4 64,4 64,1 62,0 32,0 2,0 z"
     style="color:#000000;fill:#aad963;fill-opacity:1;fill-rule:nonzero;stroke:none;stroke-width:2.28571415;marker:none;visibility:visible;display:inline;overflow:visible;enable-background:accumulate"
     inkscape:connector-curvature="0" />
  <g
     id="g3043"
     inkscape:export-filename="folder.png"
     inkscape:export-xdpi="90"
     inkscape:export-ydpi="90"
     transform="translate(-0.625,0.082283)" />
  <g
     id="scalable"
     transform="matrix(1.0385892,0,0,1.0385892,1214.7222,1878.8121)"
     inkscape:label="#g3701"
     style="fill:#ffffff" />
  <path
     inkscape:connector-curvature="0"
     id="path4162"
     d="M 64,4 32,64 0,4 Z"
     style="color:#000000;display:inline;overflow:visible;visibility:visible;opacity:1;fill:#70b63e;fill-opacity:1;fill-rule:nonzero;stroke:none;stroke-width:11.31370926;stroke-linecap:butt;stroke-linejoin:miter;stroke-miterlimit:4;stroke-dasharray:none;stroke-dashoffset:0;stroke-opacity:1;marker:none;enable-background:accumulate" />
  <path
     style="color:#000000;display:inline;overflow:visible;visibility:visible;opacity:1;fill:#377a9f;fill-opacity:1;fill-rule:nonzero;stroke:none;stroke-width:11.31370926;stroke-linecap:butt;stroke-linejoin:miter;stroke-miterlimit:4;stroke-dasharray:none;stroke-dashoffset:0;stroke-opacity:1;marker:none;enable-background:accumulate"
     d="M 32 4 L 0.6953125 62.695312 L 2 64 L 62 64 L 63.304688 62.695312 L 32 4 z "
     id="path4160" />
  <path
     style="color:#000000;display:inline;overflow:visible;visibility:visible;opacity:1;fill:#53a463;fill-opacity:1;fill-rule:nonzero;stroke:none;stroke-width:11.31370926;stroke-linecap:butt;stroke-linejoin:miter;stroke-miterlimit:4;stroke-dasharray:none;stroke-dashoffset:0;stroke-opacity:1;marker:none;enable-background:accumulate"
     d="M 32 4 L 16 34 L 32 64 L 48 34 L 32 4 z "
     id="path4160-5" />
  <path
     inkscape:connector-curvature="0"
     style="color:#000000;fill:#d6ffe9;fill-opacity:1;fill-rule:nonzero;stroke:none;stroke-width:2.28571415;marker:none;visibility:visible;display:inline;overflow:visible;enable-background:accumulate"
     d="m 23.5,12 c -1.380712,0 -2.5,1.119288 -2.5,2.5 0,0.821524 0.388193,1.544282 1,2 l 0,38.5 3,0 0,-38.5 c 0.611807,-0.455718 1,-1.178476 1,-2 C 26,13.119288 24.880712,12 23.5,12 z M 26,17 26,37 54,27 26,17 z M 43.9375,31.84375 26,38.25 26,40 54,34 43.9375,31.84375 z"
     id="path3896" />
  <path
     style="fill:#bee288;fill-opacity:1;fill-rule:nonzero"
     d="M 0,3 0,6 2,4 Z"
     id="path4298"
     inkscape:connector-curvature="0"
     sodipodi:nodetypes="cccc" />
  <path
     d="M 64,6 62,4 64,3 z"
     id="path3028"
     style="fill:#8dc751;fill-opacity:1"
     inkscape:connector-curvature="0" />
</svg>

<svg xmlns="http://www.w3.org/2000/svg" viewBox="0 0 64 64"><g color="#000"><path d="m0 4v30 28l2 2h30 30l2-2v-28-30h-32-32" fill="#34908a"/><path d="m2 0l-2 1v3h32 32v-3l-2-1h-30-30" fill="#aad963"/><path d="m64 4l-32 60-32-60" fill="#70b63e"/><path d="m32 4l-31.3 58.695 1.305 1.305h60l1.305-1.305-31.3-58.695" fill="#377a9f"/><path d="m32 4l-16 30 16 30 16-30-16-30" fill="#53a463"/><path d="m23.5 12c-1.381 0-2.5 1.119-2.5 2.5 0 .822.388 1.544 1 2v38.5h3v-38.5c.612-.456 1-1.178 1-2 0-1.381-1.119-2.5-2.5-2.5m2.5 5v20l28-10-28-10m17.938 14.844l-17.938 6.406v1.75l28-6-10.06-2.156" fill="#d6ffe9"/></g><path d="m0 3v3l2-2" fill="#bee288"/><path d="m64 6l-2-2 2-1z" fill="#8dc751"/></svg>
